_src/images/logos/logo.svg

<?xml version="1.0" encoding="UTF-8"?>
<svg width="205px" height="35px" viewBox="0 0 205 35" version="1.1" xmlns="http://www.w3.org/2000/svg" xmlns:xlink="http://www.w3.org/1999/xlink">
    <!-- Generator: Sketch 50 (54983) - http://www.bohemiancoding.com/sketch -->
    <title>logo-controlshift</title>
    <desc>Created with Sketch.</desc>
    <defs></defs>
    <g id="Symbols" stroke="none" stroke-width="1" fill="none" fill-rule="evenodd">
        <g id="nav-main" transform="translate(0.000000, -6.000000)" fill="#FFFFFF">
            <g id="nav">
                <g id="logo-controlshift" transform="translate(0.000000, 6.000000)">
                    <path d="M196.951725,10.4587982 L189.758618,10.4587982 L187.089322,29.3044561 L181.889749,29.3044561 L184.559045,10.4587982 L177.365939,10.4587982 L178.045692,5.66257018 L197.631478,5.66257018 L196.951725,10.4587982 Z M174.915759,10.3909474 L162.118296,10.3909474 L161.4054,15.4235789 L172.683775,15.4235789 L172.014457,20.1516491 L160.736388,20.1516491 L159.439793,29.3044561 L154.239913,29.3044561 L157.588656,5.66257018 L175.586305,5.66257018 L174.915759,10.3909474 Z M148.335422,29.3044561 L143.134314,29.3044561 L146.483057,5.66257018 L151.684472,5.66257018 L148.335422,29.3044561 Z M137.234427,29.3044561 L132.033319,29.3044561 L133.378401,19.8139298 L123.78882,19.8139298 L122.443431,29.3044561 L117.244165,29.3044561 L120.592907,5.66257018 L125.792481,5.66257018 L124.466732,15.0186228 L134.05662,15.0186228 L135.382368,5.66257018 L140.583476,5.66257018 L137.234427,29.3044561 Z M100.582084,0.0309473684 L99.4119266,8.1917807 C101.115145,6.39296491 103.685931,5.32546491 106.633266,5.32546491 C110.076837,5.32546491 112.861829,6.40647368 114.986096,8.33147368 L111.729112,12.2490175 C109.842069,10.7968246 107.906537,9.91844737 105.914846,9.91844737 C103.921313,9.91844737 102.745632,10.8305965 102.582982,11.9785351 L102.573162,12.046386 C102.353124,13.6002018 103.296493,14.1067807 107.232308,15.1534035 C111.850639,16.4029649 114.308798,18.1253333 113.724793,22.2461228 L113.714973,22.3130526 C113.050564,27.0082719 109.098484,29.6421754 103.998648,29.6421754 C101.356358,29.6421754 98.7926302,28.9559912 96.6349132,27.5796316 L95.5798383,34.9360789 L195.029082,34.9360789 L197.31293,19.0110789 L202.366118,16.3891491 L204.709808,0.0309473684 L100.582084,0.0309473684 Z" id="Fill-1"></path>
                    <path d="M104.750366,25.0488553 C106.877701,25.0488553 108.280785,24.204864 108.477499,22.8196009 L108.48732,22.7526711 C108.674213,21.4346447 107.958248,20.7592061 104.151938,19.7460482 C101.423106,19.023943 99.3200142,18.2481096 98.1839214,16.7652149 L97.2893481,23.0084167 L98.1001415,22.1782412 C99.9779783,23.9346886 102.048847,25.0488553 104.750366,25.0488553" id="Fill-3"></path>
                    <path d="M6.58485778,20.1583114 C2.2126497,20.1583114 -0.511272455,16.7891009 0.0804041916,12.6330044 L0.0877694611,12.5789693 C0.679446108,8.42256579 4.34305389,4.99870614 8.79781437,4.99870614 C11.5386153,4.99870614 13.1184656,5.92252193 14.2594686,7.44471491 L11.347732,10.1608991 C10.5645584,9.18304825 9.72982784,8.55796053 8.2622979,8.55796053 C6.19940868,8.55796053 4.47286677,10.3782675 4.16751497,12.5249342 L4.1601497,12.5789693 C3.84313623,14.8060746 5.02710329,16.59875 7.27995509,16.59875 C8.66554641,16.59875 9.70343563,16.0009868 10.8419835,15.0507675 L12.9103967,17.4952412 C11.2780689,19.0441447 9.49045659,20.1583114 6.58485778,20.1583114" id="Fill-5"></path>
                    <path d="M26.8699147,12.5788158 C27.1755734,10.4321491 25.8934027,8.55811404 23.6129311,8.55811404 C21.2502141,8.55811404 19.5792186,10.378114 19.2735599,12.5247807 L19.2665015,12.5788158 C18.9608428,14.7239474 20.241479,16.5989035 22.5225644,16.5989035 C24.8852814,16.5989035 26.5568907,14.7782895 26.8625494,12.6328509 L26.8699147,12.5788158 Z M21.9621901,20.1581579 C17.4543383,20.1581579 14.5907829,16.8165789 15.186756,12.6328509 L15.1941213,12.5788158 C15.7900943,8.39447368 19.6396751,4.99885965 24.174226,4.99885965 C28.6826916,4.99885965 31.546247,8.34013158 30.950274,12.5247807 L30.9429087,12.5788158 C30.3472425,16.7613158 26.496741,20.1581579 21.9621901,20.1581579 Z" id="Fill-8"></path>
                    <path d="M42.1124626,19.8316754 L43.2688099,11.7092193 C43.5471557,9.75290351 42.7664371,8.74772807 41.1908832,8.74772807 C39.6174775,8.74772807 38.4691093,9.75290351 38.1901497,11.7092193 L37.0344162,19.8316754 L32.9064895,19.8316754 L34.9798129,5.26983333 L39.1071257,5.26983333 L38.8134356,7.33514035 C39.9375599,6.11259649 41.318241,4.99873684 43.4084431,4.99873684 C46.5313174,4.99873684 48.0565419,7.06404386 47.5805614,10.4047018 L46.2388548,19.8316754 L42.1124626,19.8316754 Z" id="Fill-10"></path>
                    <path d="M54.7132418,20.0760307 C52.1884888,20.0760307 50.6215277,19.0708553 51.1005771,15.7016447 L52.0819993,8.80265351 L50.3434888,8.80265351 L50.8464753,5.26980263 L52.5849858,5.26980263 L53.1149783,1.54813596 L57.2422912,1.54813596 L56.7122987,5.26980263 L60.1346939,5.26980263 L59.6314004,8.80265351 L56.2093121,8.80265351 L55.3245591,15.0225219 C55.1889154,15.9745833 55.5310936,16.4366447 56.4532867,16.4366447 C57.2146714,16.4366447 57.9202028,16.2462939 58.5637433,15.9196272 L58.0920591,19.2344956 C57.1502253,19.7499781 56.0979124,20.0760307 54.7132418,20.0760307" id="Fill-12"></path>
                    <path d="M71.1581699,9.31810526 C68.417369,9.31810526 66.4971819,10.976 66.0030951,14.4529737 L65.2368001,19.831614 L61.1088735,19.831614 L63.1812762,5.26977193 L67.3101235,5.26977193 L66.8924513,8.2039386 C68.01811,6.19420175 69.5629753,4.89060526 71.9901385,4.99867544 L71.3757522,9.31810526 L71.1581699,9.31810526 Z" id="Fill-14"></path>
                    <path d="M84.0605876,12.5788158 C84.3653256,10.4321491 83.0831549,8.55811404 80.8045247,8.55811404 C78.4415007,8.55811404 76.7698915,10.378114 76.4642328,12.5247807 L76.4568675,12.5788158 C76.1515157,14.7239474 77.4327657,16.5989035 79.7132373,16.5989035 C82.0753406,16.5989035 83.7475636,14.7782895 84.0532223,12.6328509 L84.0605876,12.5788158 Z M79.152863,20.1581579 C74.6450112,20.1581579 71.7814558,16.8165789 72.3774289,12.6328509 L72.3847942,12.5788158 C72.9807672,8.39447368 76.8297343,4.99885965 81.3645921,4.99885965 C85.8733645,4.99885965 88.7369199,8.34013158 88.1409469,12.5247807 L88.1335816,12.5788158 C87.5379154,16.7613158 83.6874139,20.1581579 79.152863,20.1581579 Z" id="Fill-16"></path>
                    <polygon id="Fill-18" points="90.2874626 19.8316754 93.1108159 0.000184210526 97.2378219 0.000184210526 94.4156961 19.8316754"></polygon>
                </g>
            </g>
        </g>
    </g>
</svg>

<svg width="205" height="35" xmlns="http://www.w3.org/2000/svg"><g fill="#FFF" fill-rule="evenodd"><path d="M196.952 10.459h-7.193l-2.67 18.845h-5.2l2.67-18.845h-7.193l.68-4.796h19.585l-.68 4.796zm-22.036-.068h-12.798l-.713 5.033h11.279l-.67 4.728h-11.278l-1.296 9.152h-5.2l3.349-23.641h17.997l-.67 4.728zm-26.58 18.913h-5.202l3.35-23.641h5.2l-3.349 23.641zm-11.102 0h-5.2l1.344-9.49h-9.59l-1.345 9.49h-5.199l3.349-23.641h5.2l-1.326 9.356h9.59l1.325-9.356h5.201l-3.349 23.641zM100.582.031l-1.17 8.16c1.703-1.798 4.274-2.866 7.221-2.866 3.444 0 6.229 1.081 8.353 3.006l-3.257 3.918c-1.887-1.452-3.822-2.33-5.814-2.33-1.994 0-3.17.912-3.332 2.06l-.01.067c-.22 1.554.723 2.06 4.66 3.107 4.618 1.25 7.076 2.972 6.492 7.093l-.01.067c-.664 4.695-4.617 7.33-9.716 7.33-2.643 0-5.206-.687-7.364-2.063l-1.055 7.356h99.45l2.283-15.925 5.053-2.622L204.71.031H100.582z"/><path d="M104.75 25.049c2.128 0 3.53-.844 3.727-2.23l.01-.066c.187-1.318-.529-1.994-4.335-3.007-2.729-.722-4.832-1.498-5.968-2.98l-.895 6.242.811-.83c1.878 1.757 3.949 2.87 6.65 2.87M6.585 20.158c-4.372 0-7.096-3.369-6.505-7.525l.008-.054c.591-4.156 4.255-7.58 8.71-7.58 2.74 0 4.32.924 5.461 2.446l-2.911 2.716c-.783-.978-1.618-1.603-3.086-1.603-2.063 0-3.79 1.82-4.094 3.967l-.008.054c-.317 2.227.867 4.02 3.12 4.02 1.386 0 2.423-.598 3.562-1.548l2.068 2.444c-1.632 1.55-3.42 2.663-6.325 2.663M26.87 12.579c.306-2.147-.977-4.02-3.257-4.02-2.363 0-4.034 1.82-4.34 3.966l-.006.054c-.306 2.145.974 4.02 3.256 4.02 2.362 0 4.034-1.82 4.34-3.966l.007-.054zm-4.908 7.58c-4.508 0-7.371-3.342-6.775-7.526l.007-.054c.596-4.185 4.446-7.58 8.98-7.58 4.509 0 7.372 3.341 6.776 7.526l-.007.054c-.596 4.182-4.446 7.58-8.98 7.58zM42.112 19.832l1.157-8.123c.278-1.956-.503-2.961-2.078-2.961-1.574 0-2.722 1.005-3 2.961l-1.157 8.123h-4.128L34.98 5.27h4.127l-.294 2.065C39.938 6.113 41.318 5 43.408 5c3.123 0 4.649 2.065 4.173 5.406l-1.342 9.427h-4.127zM54.713 20.076c-2.525 0-4.091-1.005-3.612-4.374l.981-6.9h-1.739l.503-3.532h1.739l.53-3.722h4.127l-.53 3.722h3.423l-.504 3.533H56.21l-.884 6.22c-.136.952.206 1.414 1.128 1.414.762 0 1.467-.19 2.11-.517l-.47 3.314c-.943.516-1.995.842-3.38.842M71.158 9.318c-2.74 0-4.66 1.658-5.155 5.135l-.766 5.379h-4.128L63.18 5.27h4.13l-.419 2.934c1.126-2.01 2.671-3.313 5.098-3.205l-.614 4.32h-.218zM84.06 12.579c.305-2.147-.977-4.02-3.255-4.02-2.363 0-4.035 1.82-4.34 3.966l-.008.054c-.305 2.145.976 4.02 3.256 4.02 2.362 0 4.035-1.82 4.34-3.966l.008-.054zm-4.907 7.58c-4.508 0-7.372-3.342-6.776-7.526l.008-.054c.596-4.185 4.445-7.58 8.98-7.58 4.508 0 7.372 3.341 6.776 7.526l-.007.054c-.596 4.182-4.447 7.58-8.981 7.58zM90.287 19.832L93.111 0h4.127l-2.822 19.832z"/></g></svg>
